modules/hawcons-filled/icons/icon-21-eye-hidden.svg

<?xml version="1.0" encoding="UTF-8" standalone="no"?>
<svg width="32px" height="32px" viewBox="0 0 32 32" version="1.1" xmlns="http://www.w3.org/2000/svg" xmlns:xlink="http://www.w3.org/1999/xlink" xmlns:sketch="http://www.bohemiancoding.com/sketch/ns">
    <!-- Generator: Sketch 3.0.3 (7891) - http://www.bohemiancoding.com/sketch -->
    <title>icon 21 eye hidden</title>
    <desc>Created with Sketch.</desc>
    <defs></defs>
    <g id="Page-1" stroke="none" stroke-width="1" fill="none" fill-rule="evenodd" sketch:type="MSPage">
        <g id="icon-21-eye-hidden" sketch:type="MSArtboardGroup" fill="#929292">
            <path d="M8.10869891,20.8913011 C4.61720816,18.8301147 3,16 3,16 C3,16 7,9 16,9 C17.3045107,9 18.5039752,9.14706466 19.6014388,9.39856122 L16.8986531,12.1013469 C16.6097885,12.0350342 16.3089856,12 16,12 C13.7908609,12 12,13.7908609 12,16 C12,16.3089856 12.0350342,16.6097885 12.1013469,16.8986531 L8.10869891,20.8913011 L8.10869891,20.8913011 L8.10869891,20.8913011 Z M12.398561,22.601439 C13.4960246,22.8529356 14.6954892,23.0000001 16,23 C25,22.999999 29,16 29,16 C29,16 27.3827918,13.1698856 23.8913008,11.1086992 L19.8986531,15.1013469 C19.9649658,15.3902115 20,15.6910144 20,16 C20,18.2091391 18.2091391,20 16,20 C15.6910144,20 15.3902115,19.9649658 15.1013469,19.8986531 L12.398561,22.601439 L12.398561,22.601439 L12.398561,22.601439 Z M19,16 C19.0000001,16.7677669 18.7071068,17.5355339 18.1213203,18.1213203 C17.5355339,18.7071068 16.7677669,19.0000001 16,19 L19,16 L19,16 L19,16 Z M16,13 C15.2322331,12.9999999 14.4644661,13.2928932 13.8786797,13.8786797 C13.2928932,14.4644661 12.9999999,15.2322331 13,16 L16,13 L16,13 L16,13 Z M24,7 L7,24 L8,25 L25,8 L24,7 L24,7 Z" id="eye-hidden" sketch:type="MSShapeGroup"></path>
        </g>
    </g>
</svg>

<svg width="32" height="32" viewBox="0 0 32 32" xmlns="http://www.w3.org/2000/svg"><path d="M8.109 20.891C4.617 18.831 3 16 3 16s4-7 13-7c1.305 0 2.504.147 3.601.399L16.9 12.1a4 4 0 0 0-4.797 4.797l-3.993 3.993zm4.29 1.71c1.097.252 2.296.399 3.601.399 9 0 13-7 13-7s-1.617-2.83-5.109-4.891L19.9 15.1a4 4 0 0 1-4.797 4.797l-2.703 2.703zM19 16a2.99 2.99 0 0 1-.879 2.121A2.99 2.99 0 0 1 16 19l3-3zm-3-3a2.99 2.99 0 0 0-2.121.879A2.99 2.99 0 0 0 13 16l3-3zm8-6L7 24l1 1L25 8l-1-1z" fill="#929292" fill-rule="evenodd"/></svg>
